X: 20165
T: Job Of Journeywork, The
R: three-two
M: 3/2
K: Dmajor
AB/c/|d3 e/d/ A3 B/A/ GEED|D8 zFGA/B/|=c4 BA3 GA/G/F/E/F/G/|
A8 z2ed/c/|d3 e/d/ A3 B/A/ GEED|D8 zDEF/G/|
EA (G6 G)EED|D8zFGA/B/|=c3 BA3 G2 A/G/ED|
D8 z2AB/c/|d4 e/f/ e4 ddc|A8 z2f>e|
d3f/e/ dFGA/G/ (F4|F)GEA (G4 G)EED|D8 z2d>e|
f4 de/f/gf e4|ed/c/ dc A3A/G/ FE F/E/F/G/|A4 z2d>e|
f4 g/f/e/d/gf e4|d/c/Acd cBd6|ag>fd fag2 ef3|
(3gfe dc A3B/A/ G/F/ GEE|D8 z2F/G/A/B/|=c4 BAG2 Ad3|
dd/e/dc dA2(3A/G/F/ (G4|G)G/F/EG Ad3 dedc|d/c/A3 GEA G2 EED|D8 z2||

